X:248
T:Bonnie Kate
T:Boys of Limerick
N:Irish version of "The Bonnie Lass of Fisherrow"
N:by Scottish composer Donald Dow.
B:Kerr's Merry Melodies Bk.4, p7
Z:Nigel Gatherer
M:4/4
L:1/8
K:D
(3dcB|AFdA (3Bcd AF|DFAF EDEF|AFAd BGBd|(3cBA Bc dcdB|
Adcd BdAF|DFAF EDEF|AFAc BGBd|(3cBA Bc defg||
agfd (3fga fd|fagf e^def|gfga gbag|fedc defg|
a2 fd (3fga fd|fagf edef|g2 gf gbag|fedc d2||
<end>
<start>
